X:1
T:G Major           Daniel Belknap, 1806
T:Isaac Watts, 1707 (Hymn 69, Book 1)        88. 88. (L. M.)
T:Enfield
T:Treble-Tenor-Bass transcribed from The Village Compilation , 1806 ; Counter by B. C. Johnston, 2017..
%%score [ 1 2 3 4 ]
L:1/8
Q:1/4=100
M:2/4
K:G
V:1 treble nm="Tr." snm="Tr."
V:2 treble nm="C." snm="C."
V:3 treble-8 nm="T." snm="T."
V:4 bass nm="B." snm="B."
V:1
"^1. The  voice    of    my   Be – lo  – ved  sounds   O – ver    the     rocks and rising grounds;  O'er hills of guilt  and  seas of  grief   He   leaps,  he         flies     to       my  re – lief." B2 | %1
 dB GB | A3 A | BG Bd | d3 d | e2 f2 | g2 Bd | G2 G2 | G4 | B2 BB | Bd BG | e2 e2 | e2 dc | B2 B2 | %14
 dg ge | d2 c2 | B4 |: %17
 z2"^1. Now through the veil of flesh I see  With  eyes  of  love  he looks at me;     Now         in    the      gos   –  pel's  clearest  glass    He  shows    the   beau  –  ties  of  his  face." B2 | %18
 d2 Bd | c2 d2 | e2 ce | d2 A2 | B2 GB | A2 B2 | c2 Ac | B4 | z2 d2 | B2 A2 | G3 d | e2 e2 | %30
 d2 G2 | d>e dc | B>A Gg | d2 d2 | B4 :| %35
V:2
"^2. Gent–ly     he      draws  my  heart    a   –  long,  Both with his  beauties and his tongue;  Rise, saith my Lord, make haste away,  No  mor –tal     joys   are     worth thy stay." G2 | %1
 GB Bd | A3 A | BG GB | G3 A | G2 A2 | GE GA | B2 B2 | B4 | G2 GG | Bd dB | c2 c2 | c2 Bc | d2 G2 | %14
 Bc BA | G2 A2 | G4 |: %17
 z2"^2. The Jewish wintry state is gone,  The mists are fled, the spring comes on;  The         sac –red     tur    –    tle–dove  we  hear   Pro–claim   the   new,      the   joy–ful  year." B2 | %18
 B2 GB | c2 B2 | c2 AE | D2 E2 | D2 GB | c2 B2 | A2 Ac | B4 | z2 (3FGA | B2 A2 | G3 B | c2 cB | %30
 A2 G2 | G>A Gc | B>A Bc | B2 A2 | G4 :| %35
V:3
"^3. Th'im–mor–tal  vine  of    heaven – ly  root   Blossoms,  and  buds, and gives her fruit: Lo! we are come to taste the wine;  Our    souls   re   –    joice,  and  bless  the  vine." d2 | %1
 gd Bd | d3 e | dB GB | B3 A | G2 AB | ce dc | B2 B2 | B4 | d2 dd | dg dB | c2 c2 | c2 Bc | dB ge | %14
 ed dc | B2 A2 | G4 |: %17
 z2"^3. And when we hear our Je–sus say,  \"Rise up, my love, make haste away!\"   Our     hearts  would  fain  out –fly  the  wind,  And  leave    all   earth – ly  loves  be–hind." G2 | %18
 B2 GB | A2 B2 | c2 Ac | B2 c2 | d2 Bd | c2 d2 | e2 ce | d4 | z2 (3def | g2 ec | d>e dB | c2 cB | %30
 A2 d2 | g>a ge | d>e dc | B2 A2 | G4 :| %35
V:4
 G,2 | G,2 G,2 | D,3 D, | G,2 G,2 | G,3 F, | E,2 D,2 | C,2 G,A, | E,2 E,2 | E,4 | G,2 G,G, | %10
 G,2 B,2 | A,2 A,2 | A,2 B,A, | G,2 E,2 | A,C B,A, | G,2 D,2 | G,,4 |: z4 | z4 | z4 | z4 | z4 | %22
 z4 | z4 | z4 | z4 | z2 G,2 | G,2 A,2 | B,3 G, | C,2 C,2 | D,2 B,2 | G,3 A, | B,2 C2 | D2 D,2 | %34
 G,4 :| %35

